!!!SOCIAL_FUNCTION:	potlatch songs
!!!PDT:	1943
!!!OTL: No_35_A_Desire_for_Clear_Weather.krn
!!!REG: British Columbia
**kern
*staff1
=1-
*clefF4
*k[f#c#g#]
*M2/4
4r
16F#\LL
16F#\
16F#\JJ
32r
32F#\
=2
8.B\L
16B\Jk
8B\
16r
16B\
=3
8.A\L
16F#\Jk
8E\
16r
16A\
=4
8.A\L
16F#\Jk
16E\
16r
16C#/LL
16E/JJ
=5||
*M3/4
4E\
8F#\
8r
16C#\LL
16F#\
16F#\JJ
32r
32C#/
=6||
*M2/4
4E\
8.r
16E\
=7
16E\
16r
16E\LL
16F#\JJ
4F#\
==
*-
